X: 28
T: No_121_War_Song_Concerning_the_Owls.krn
N: Derived from No_121_War_Song_Concerning_the_Owls.krn
%%abc-version 2.0
%%abcx-abcm2ps-target-version 5.9.1 (29 Sep 2008)
%%abc-creator hum2abc beta
%%abcx-conversion-date 2019/03/15 08:35:44
%%humdrum-veritas 225305100
%%humdrum-veritas-data 3377154718
%%linebreak <none>
%%barnumbers 0
L: 1/8
M: 3/4
K: F clef=bass
[K:clef=bass][M:3/4]z4D,A, ]|:  
F,2F, z A,F, | 
D,2D,2D,E, ||  
[M:2/4]F,D, D,F, | 
D,/D,3/ D,F, ||  
[M:3/4]D,2D, z D,A, [I:setbarnb 7]:|]  
[M:2/4]D,2D, z |]  



